assets/favorite.svg

<svg fill="none" height="24" viewBox="0 0 24 24" width="24" xmlns="http://www.w3.org/2000/svg" xmlns:xlink="http://www.w3.org/1999/xlink"><mask id="a" height="24" maskUnits="userSpaceOnUse" width="24" x="0" y="0"><path d="m.000061 0h24v24h-24z" fill="#d9d9d9"/></mask><g mask="url(#a)"><path d="m12.0001 20.3249c-.2334 0-.4709-.0417-.7125-.125-.2417-.0833-.4542-.2167-.6375-.4l-1.72504-1.575c-1.76667-1.6167-3.3625-3.2208-4.7875-4.8125s-2.1375-3.3458-2.1375-5.2625c0-1.56666.525-2.875 1.575-3.925s2.35833-1.575 3.925-1.575c.88333 0 1.71667.1875 2.50004.5625.7833.375 1.45.8875 2 1.5375.55-.65 1.2166-1.1625 2-1.5375.7833-.375 1.6166-.5625 2.5-.5625 1.5666 0 2.875.525 3.925 1.575s1.575 2.35834 1.575 3.925c0 1.9167-.7084 3.675-2.125 5.275-1.4167 1.6-3.025 3.2083-4.825 4.825l-1.7 1.55c-.1834.1833-.3959.3167-.6375.4-.2417.0833-.4792.125-.7125.125zm-.95-13.575c-.4834-.68333-1-1.20416-1.55004-1.5625-.55-.35833-1.21667-.5375-2-.5375-1 0-1.83333.33334-2.5 1-.66667.66667-1 1.5-1 2.5 0 .86667.30833 1.7875.925 2.7625s1.35417 1.9208 2.2125 2.8375 1.74167 1.775 2.65 2.575c.90834.8 1.64584 1.4583 2.21254 1.975.5666-.5167 1.3041-1.175 2.2125-1.975.9083-.8 1.7916-1.6583 2.65-2.575.8583-.9167 1.5958-1.8625 2.2125-2.8375.6166-.975.925-1.89583.925-2.7625 0-1-.3334-1.83333-1-2.5-.6667-.66666-1.5-1-2.5-1-.7834 0-1.45.17917-2 .5375-.55.35834-1.0667.87917-1.55 1.5625-.1167.16667-.2584.29167-.425.375-.1667.08334-.3417.125-.525.125-.1834 0-.3584-.04166-.525-.125-.1667-.08333-.3084-.20833-.425-.375z" fill="#000"/></g></svg>

<svg width="24" height="24" viewBox="0 0 24 24" fill="none" xmlns="http://www.w3.org/2000/svg">
<mask id="mask0_3_4931" style="mask-type:alpha" maskUnits="userSpaceOnUse" x="0" y="0" width="24" height="24">
<rect x="6.10352e-05" width="24" height="24" fill="#D9D9D9"/>
</mask>
<g mask="url(#mask0_3_4931)">
<path d="M12.0001 20.3249C11.7667 20.3249 11.5292 20.2832 11.2876 20.1999C11.0459 20.1166 10.8334 19.9832 10.6501 19.7999L8.92506 18.2249C7.15839 16.6082 5.56256 15.0041 4.13756 13.4124C2.71256 11.8207 2.00006 10.0666 2.00006 8.1499C2.00006 6.58324 2.52506 5.2749 3.57506 4.2249C4.62506 3.1749 5.93339 2.6499 7.50006 2.6499C8.38339 2.6499 9.21673 2.8374 10.0001 3.2124C10.7834 3.5874 11.4501 4.0999 12.0001 4.7499C12.5501 4.0999 13.2167 3.5874 14.0001 3.2124C14.7834 2.8374 15.6167 2.6499 16.5001 2.6499C18.0667 2.6499 19.3751 3.1749 20.4251 4.2249C21.4751 5.2749 22.0001 6.58324 22.0001 8.1499C22.0001 10.0666 21.2917 11.8249 19.8751 13.4249C18.4584 15.0249 16.8501 16.6332 15.0501 18.2499L13.3501 19.7999C13.1667 19.9832 12.9542 20.1166 12.7126 20.1999C12.4709 20.2832 12.2334 20.3249 12.0001 20.3249ZM11.0501 6.7499C10.5667 6.06657 10.0501 5.54574 9.50006 5.1874C8.95006 4.82907 8.28339 4.6499 7.50006 4.6499C6.50006 4.6499 5.66673 4.98324 5.00006 5.6499C4.33339 6.31657 4.00006 7.1499 4.00006 8.1499C4.00006 9.01657 4.30839 9.9374 4.92506 10.9124C5.54173 11.8874 6.27923 12.8332 7.13756 13.7499C7.99589 14.6666 8.87923 15.5249 9.78756 16.3249C10.6959 17.1249 11.4334 17.7832 12.0001 18.2999C12.5667 17.7832 13.3042 17.1249 14.2126 16.3249C15.1209 15.5249 16.0042 14.6666 16.8626 13.7499C17.7209 12.8332 18.4584 11.8874 19.0751 10.9124C19.6917 9.9374 20.0001 9.01657 20.0001 8.1499C20.0001 7.1499 19.6667 6.31657 19.0001 5.6499C18.3334 4.98324 17.5001 4.6499 16.5001 4.6499C15.7167 4.6499 15.0501 4.82907 14.5001 5.1874C13.9501 5.54574 13.4334 6.06657 12.9501 6.7499C12.8334 6.91657 12.6917 7.04157 12.5251 7.1249C12.3584 7.20824 12.1834 7.2499 12.0001 7.2499C11.8167 7.2499 11.6417 7.20824 11.4751 7.1249C11.3084 7.04157 11.1667 6.91657 11.0501 6.7499Z" fill="white"/>
</g>
</svg>
